X: 32358
T: Pint Of Reference
R: reel
M: 4/4
K: Bminor
AB~B2 dB~B2|ABBA BAGA|~F3E FG~F2-|FEFG AGFE|
AB~B2 dB~B2|ABBA BAGA|~F3E FG~F2-|1 FEFG F2z2:|2 FEFG ABde||
|:~f3d ~B3d|e3c A3G|~F3E FG~F2-|FEFG ABde|
~f3d ~B3d|e3c A3c|BcdB cde2|1 zcBA BA (3Bcd:|2 zcBA B2z2||

